icon-themes/elementary_svg/cmd/sc_nexttrackedchange.svg

<svg height="16" width="16" xmlns="http://www.w3.org/2000/svg" xmlns:xlink="http://www.w3.org/1999/xlink"><linearGradient id="a" gradientTransform="matrix(.25378586 0 0 .30501865 19.128979 -.685477)" gradientUnits="userSpaceOnUse" x1="-51.786404" x2="-51.786404" y1="50.786446" y2="2.906247"><stop offset="0" stop-opacity=".339506"/><stop offset="1" stop-opacity=".246914"/></linearGradient><linearGradient id="b" gradientTransform="matrix(.24324324 0 0 .35135133 2.162164 -.432428)" gradientUnits="userSpaceOnUse" x1="23.99999" x2="23.99999" y1="6.923065" y2="41.076912"><stop offset="0" stop-color="#fff"/><stop offset="0" stop-color="#fff" stop-opacity=".235294"/><stop offset="1" stop-color="#fff" stop-opacity=".156863"/><stop offset="1" stop-color="#fff" stop-opacity=".392157"/></linearGradient><linearGradient id="c" gradientTransform="matrix(.28571361 0 0 .30419701 1.142873 .232605)" gradientUnits="userSpaceOnUse" x1="25.132275" x2="25.132275" y1=".985206" y2="47.013336"><stop offset="0" stop-color="#f4f4f4"/><stop offset="1" stop-color="#dbdbdb"/></linearGradient><linearGradient id="d" gradientTransform="matrix(.49219581 0 0 .45839231 4.509306 -4.793718)" gradientUnits="userSpaceOnUse" x1="23.731871" x2="23.731871" y1="5.394345" y2="39.735077"><stop offset="0" stop-color="#90dbec"/><stop offset=".26238" stop-color="#55c1ec"/><stop offset=".704952" stop-color="#3689e6"/><stop offset="1" stop-color="#2b63a0"/></linearGradient><linearGradient id="e" gradientTransform="matrix(0 -.5372019 .57681717 0 -15.997188 19.865617)" gradientUnits="userSpaceOnUse" x1="40.957993" x2="18.680689" y1="46.97065" y2="46.97065"><stop offset="0" stop-color="#fff"/><stop offset=".45000002" stop-color="#fff" stop-opacity=".235294"/><stop offset=".65000004" stop-color="#fff" stop-opacity=".156863"/><stop offset="1" stop-color="#fff" stop-opacity=".392157"/></linearGradient><path d="m3 1c2.2915074 0 9.999988.0008904 9.999988.0008904l.000012 13.9991096s-6.6666668 0-10 0c0-4.666666 0-9.3333336 0-14z" fill="url(#c)"/><path d="m12.5 14.5h-9.0000001v-13h9.0000001z" fill="none" stroke="url(#b)" stroke-linecap="round"/><path d="m2.4999621.49997396c2.5206756 0 11.0000629.000954 11.0000629.000954l.000013 14.99909804s-7.3333841 0-11.000076 0c0-5.000017 0-10.000035.0000001-15.00005204z" fill="none" stroke="url(#a)" stroke-linejoin="round" stroke-width=".999922"/><path d="m5 5h1v1h-1z" fill="#e20000"/><path d="m8 3h3.000001v1h-3.000001z" fill="#e20000"/><g fill="#aaa"><path d="m5 3h2v1h-2z"/><path d="m7 5h3v1h-3z"/><path d="m5 7h3v1h-3z"/></g><path d="m9 7h2v1h-2z" fill="#e20000"/><g transform="matrix(.64678195 0 0 .64678195 .477252 9.712273)"><path d="m16.5 9.221611 7-5.673017-7-5.6960218v3.6474278h-6v4h6z" display="block" fill="url(#d)"/><g stroke-miterlimit="7"><path d="m16.5 9.221611 7-5.673017-7-5.696022v3.6474278h-6v4.0000002h6z" display="block" fill="#46a9eb" fill-opacity=".984314" stroke="#2f78c8" stroke-linejoin="round"/><path d="m17.5 7.111422 4.434589-3.562828-4.434589-3.6228751v2.5742811h-6v2h6z" display="block" fill="none" stroke="url(#e)" stroke-width=".963925"/></g></g></svg>

<?xml version="1.0" encoding="UTF-8" standalone="no"?>
<svg
   xmlns:dc="http://purl.org/dc/elements/1.1/"
   xmlns:cc="http://creativecommons.org/ns#"
   xmlns:rdf="http://www.w3.org/1999/02/22-rdf-syntax-ns#"
   xmlns:svg="http://www.w3.org/2000/svg"
   xmlns="http://www.w3.org/2000/svg"
   xmlns:xlink="http://www.w3.org/1999/xlink"
   xmlns:sodipodi="http://sodipodi.sourceforge.net/DTD/sodipodi-0.dtd"
   xmlns:inkscape="http://www.inkscape.org/namespaces/inkscape"
   id="svg3942"
   height="16"
   width="16"
   version="1.1"
   sodipodi:docname="sc_nexttrackedchange.svg"
   inkscape:export-filename="/home/rizmut/Dokumen/Rizmut/Github/libreoffice-style-elementary/images_elementary/cmd/sc_nexttrackedchange.png"
   inkscape:export-xdpi="96"
   inkscape:export-ydpi="96"
   inkscape:version="0.92.3 (unknown)">
  <sodipodi:namedview
     pagecolor="#ffffff"
     bordercolor="#666666"
     borderopacity="1"
     objecttolerance="10"
     gridtolerance="10"
     guidetolerance="10"
     inkscape:pageopacity="0"
     inkscape:pageshadow="2"
     inkscape:window-width="1366"
     inkscape:window-height="706"
     id="namedview23"
     showgrid="false"
     inkscape:zoom="29.5"
     inkscape:cx="11.583414"
     inkscape:cy="5.9096692"
     inkscape:window-x="0"
     inkscape:window-y="0"
     inkscape:window-maximized="1"
     inkscape:current-layer="svg3942" />
  <defs
     id="defs3944">
    <linearGradient
       gradientTransform="matrix(0.25378586,0,0,0.30501865,19.128979,-0.68547704)"
       gradientUnits="userSpaceOnUse"
       xlink:href="#linearGradient3104-9"
       id="linearGradient3092"
       y2="2.9062471"
       x2="-51.786404"
       y1="50.786446"
       x1="-51.786404" />
    <linearGradient
       id="linearGradient3104-9">
      <stop
         offset="0"
         style="stop-color:#000000;stop-opacity:0.33950618"
         id="stop3106-5" />
      <stop
         offset="1"
         style="stop-color:#000000;stop-opacity:0.24691358"
         id="stop3108-5" />
    </linearGradient>
    <linearGradient
       gradientTransform="matrix(0.24324324,0,0,0.35135133,2.1621636,-0.43242804)"
       gradientUnits="userSpaceOnUse"
       xlink:href="#linearGradient3977"
       id="linearGradient3095"
       y2="41.076912"
       x2="23.99999"
       y1="6.9230647"
       x1="23.99999" />
    <linearGradient
       id="linearGradient3977">
      <stop
         offset="0"
         style="stop-color:#ffffff;stop-opacity:1"
         id="stop3979" />
      <stop
         offset="0"
         style="stop-color:#ffffff;stop-opacity:0.23529412"
         id="stop3981" />
      <stop
         offset="1"
         style="stop-color:#ffffff;stop-opacity:0.15686275"
         id="stop3983" />
      <stop
         offset="1"
         style="stop-color:#ffffff;stop-opacity:0.39215687"
         id="stop3985" />
    </linearGradient>
    <linearGradient
       id="linearGradient3600">
      <stop
         offset="0"
         style="stop-color:#f4f4f4;stop-opacity:1"
         id="stop3602" />
      <stop
         offset="1"
         style="stop-color:#dbdbdb;stop-opacity:1"
         id="stop3604" />
    </linearGradient>
    <linearGradient
       gradientTransform="matrix(0.28571361,0,0,0.30419701,1.1428727,0.2326048)"
       gradientUnits="userSpaceOnUse"
       xlink:href="#linearGradient3600"
       id="linearGradient3940"
       y2="47.013336"
       x2="25.132275"
       y1="0.98520643"
       x1="25.132275" />
    <radialGradient
       id="a"
       cx="23.896"
       cy="3.99"
       gradientTransform="matrix(0,0.41038696,-0.54170353,0,10.161398,-5.568732)"
       gradientUnits="userSpaceOnUse"
       r="20.396999">
      <stop
         offset="0"
         stop-color="#ed5353"
         id="stop2" />
      <stop
         offset="1"
         stop-color="#c6262e"
         id="stop4" />
    </radialGradient>
    <linearGradient
       id="b"
       gradientUnits="userSpaceOnUse"
       x1="7.928443"
       x2="7.928443"
       y1="5.416265"
       y2="10.565373">
      <stop
         offset="0"
         stop-color="#fff"
         id="stop7" />
      <stop
         offset=".507761"
         stop-color="#fff"
         stop-opacity=".235294"
         id="stop9" />
      <stop
         offset=".83456558"
         stop-color="#fff"
         stop-opacity=".156863"
         id="stop11" />
      <stop
         offset="1"
         stop-color="#fff"
         stop-opacity=".392157"
         id="stop13" />
    </linearGradient>
    <linearGradient
       id="a-9"
       gradientTransform="matrix(0.49219581,0,0,0.45839231,4.509306,-4.793718)"
       gradientUnits="userSpaceOnUse"
       x1="23.731871"
       x2="23.731871"
       y1="5.3943448"
       y2="39.735077">
      <stop
         offset="0"
         stop-color="#90dbec"
         id="stop2-9" />
      <stop
         offset=".26238"
         stop-color="#55c1ec"
         id="stop4-1" />
      <stop
         offset=".704952"
         stop-color="#3689e6"
         id="stop6" />
      <stop
         offset="1"
         stop-color="#2b63a0"
         id="stop8" />
    </linearGradient>
    <linearGradient
       id="b-4"
       gradientTransform="matrix(0,-0.5372019,0.57681717,0,-15.997188,19.865617)"
       gradientUnits="userSpaceOnUse"
       x1="40.957993"
       x2="18.680689"
       y1="46.97065"
       y2="46.97065">
      <stop
         offset="0"
         stop-color="#fff"
         id="stop11-9" />
      <stop
         offset=".45000002"
         stop-color="#fff"
         stop-opacity=".235294"
         id="stop13-1" />
      <stop
         offset=".65000004"
         stop-color="#fff"
         stop-opacity=".156863"
         id="stop15" />
      <stop
         offset="1"
         stop-color="#fff"
         stop-opacity=".392157"
         id="stop17" />
    </linearGradient>
  </defs>
  <metadata
     id="metadata3947">
    <rdf:RDF>
      <cc:Work
         rdf:about="">
        <dc:format>image/svg+xml</dc:format>
        <dc:type
           rdf:resource="http://purl.org/dc/dcmitype/StillImage" />
        <dc:title></dc:title>
      </cc:Work>
    </rdf:RDF>
  </metadata>
  <g
     id="g1960">
    <path
       style="display:inline;fill:url(#linearGradient3940);fill-opacity:1;stroke:none"
       id="path4160"
       d="m 3,1 c 2.2915074,0 9.999988,8.904e-4 9.999988,8.904e-4 L 13,15 C 13,15 6.3333332,15 3,15 3,10.333334 3,5.6666664 3,1 Z" />
    <path
       style="fill:none;stroke:url(#linearGradient3095);stroke-width:1;stroke-linecap:round;stroke-linejoin:miter;stroke-miterlimit:4;stroke-dasharray:none;stroke-dashoffset:0;stroke-opacity:1"
       id="rect6741-1"
       d="M 12.5,14.5 H 3.4999999 V 1.5 H 12.5 Z" />
    <path
       style="display:inline;fill:none;stroke:url(#linearGradient3092);stroke-width:0.99992192;stroke-linecap:butt;stroke-linejoin:round;stroke-miterlimit:4;stroke-dasharray:none;stroke-dashoffset:0;stroke-opacity:1"
       id="path4160-8"
       d="m 2.4999621,0.49997396 c 2.5206756,0 11.0000629,9.54e-4 11.0000629,9.54e-4 l 1.3e-5,14.99909804 c 0,0 -7.3333841,0 -11.000076,0 0,-5.000017 0,-10.000035 10e-8,-15.00005204 z" />
  </g>
  <path
     inkscape:connector-curvature="0"
     style="fill:#e20000"
     d="M 5,5 H 6 V 6 H 5 Z"
     id="path24" />
  <path
     inkscape:connector-curvature="0"
     style="fill:#e20000"
     d="m 8,3 h 3.000001 V 4 H 8 Z"
     id="path26" />
  <g
     style="fill:#aaaaaa"
     id="g34">
    <path
       inkscape:connector-curvature="0"
       d="M 5,3 H 7 V 4 H 5 Z"
       id="path28" />
    <path
       inkscape:connector-curvature="0"
       d="m 7,5 h 3 V 6 H 7 Z"
       id="path30" />
    <path
       inkscape:connector-curvature="0"
       d="M 5,7 H 8 V 8 H 5 Z"
       id="path32" />
  </g>
  <path
     inkscape:connector-curvature="0"
     style="fill:#e20000"
     d="m 9,7 h 2 V 8 H 9 Z"
     id="path36" />
  <g
     transform="matrix(0.64678195,0,0,0.64678195,0.477252,9.712273)"
     id="g48">
    <path
       style="display:block;fill:url(#a-9)"
       inkscape:connector-curvature="0"
       d="m 16.5,9.221611 7,-5.673017 -7,-5.6960218 V 1.5 h -6 v 4 h 6 z"
       display="block"
       id="path42" />
    <path
       inkscape:connector-curvature="0"
       d="m 16.5,9.221611 7,-5.673017 -7,-5.696022 v 3.6474278 h -6 V 5.5 h 6 z"
       style="display:block;fill:#46a9eb;fill-opacity:0.98431402;stroke:#2f78c8;stroke-linejoin:round;stroke-miterlimit:7"
       id="path44" />
    <path
       style="display:block;fill:none;stroke:url(#b-4);stroke-width:0.963925;stroke-miterlimit:7"
       inkscape:connector-curvature="0"
       d="M 17.5,7.111422 21.934589,3.548594 17.5,-0.0742811 V 2.5 h -6 v 2 h 6 z"
       display="block"
       stroke-miterlimit="7"
       id="path46" />
  </g>
</svg>
